X: 397
T: Miss Dumbreck
C:
O:Scotland
B:Keith Norman MacDonald : "The Skye collection of the best reels & strathspeys extant" : 1887
Z:Ralph Palmer
N:See also #44, in A.
R:Reel
M:C|
L:1/8
K:Bb
f | (ed)(cB) ~B2 (df) | Tgfdf gabf | (ed)(cB) ~B2 (dB) | cAFA cdef |
(ed)(cB) ~B2 (df) | gfdf Tgfga | b2 b>f (ed)(cB) | AFcA dFcF ||
~B2 (df) bfdf | bfdf bfdB | ~F2 (Ac) fg=eg | fg=eg fcAF |
B2 (df) bfdf | bfdf bfdB | GeFd EcDB | (FG)(AB) cde |]


